!!!OTL: Die harrende Braut.
!!!OTL-incipit: DER FRUEHLING KAM UND DIE NACHTIGALL
!!!ARE: Europa, Mitteleuropa, Deutschland, Rhein
!!!SCT: Z1110
!!!TXL: @@DE
!!!YEM: Copyright 1995, estate of Helmut Schaffrath.
**kern	**text
*ICvox	*
*M4/4	*
*met(c)	*
*k[b-]	*
*F:	*
!LO:TX:a:t=Rheiniſch.	!
{8fL	Der
8gJ	.
=1	=1
4a	Frühling
4a	.
4a	kam
8cc/	und
8b-/	die
=2	=2
4a	Nachti-
4a	.
4a}	-gall,
{8g	a-
8a	-ber
=3	=3
4b-/	ach
4b-/	mein
4b-/	Lieb-
8cc/L	-ſter
8b-J	.
=4	=4
2a	nicht;
4r}	.
{8gL	er
8aJ	.
=5	=5
4b-/	ging
8b-/	ü-
8b-/	-ber'n
8b-/L	Rhein
8ddJ	.
8cc/	mit
8b-/	dem
=6	=6
4a	deut-
4a	-ſchen
4a}	Heer,
{8gL	als
8aJ	.
=7	=7
4b-/	Krie-
4b-/	-ger
8b-/L	in
8ddJ	.
8cc/L	des
8b-J	.
=8	=8
4a	Kö-
4a	-nigs
4a}	Wehr,
{8cc/L	a-
8b-J	.
=9	=9
4a	-de,
8cc/L	a-
8b-J	.
4a	-de,
8cc/L	a-
8b-J	.
=10	=10
4a	-de!
4r	.
4r}	.
{8b-/L	o
8aJ	.
=11	=11
4g	weh,
8b-/L	o
8aJ	.
4g	weh,
8b-L	o
8aJ	.
=12	=12
4g	weh!
4r	.
4r}	.
{8f	und
8a	da
=13	=13
4cc	ſchallt
8cc	es
8cc	ſo
8ccL	dumpf,
8ffJ	.
8ee	und
8dd	da
=14	=14
4cc	blitʒt
8cc	es
8b-/	ſo
4a}	roth,
{8gL	ihr
8aJ	.
=15	=15
4b-/	Lieb-
4b-/	-ſter
4ddqq	.
4cc/	der
8b-L	war
8aJ	.
=16	=16
2g	todt!
4r}	.
{8aL	ihr
8gJ	.
=17	=17
2.f	Lieb-
8gL	-ſter
8aJ	.
=18	=18
(>4a	der
4b-/	.
4a)	.
4g	war
=19	=19
2f;	todt!
4r}	.
==	==
!!!AGN: Romanze, Ballade, verlassene Liebe
!!!ONB: ESAC (Essen Associative Code) Database: ZUCCAL
!!!AMT: simple quadruple
!!!AIN: vox
!!!EED: Helmut Schaffrath
!!!EEV: 1.0
!!!RDF**kern: >= above
!!!GTL: II. Gau- Leuschen.
!!!URL-scan: https://www.digitale-sammlungen.de/de/view/bsb11160573?page=234
!!!ENC: Anna Maria Matuszewska
!!!EEV: 2025/02/04
*-	*-
